svgs/sharp-light/business-time.svg

<svg xmlns="http://www.w3.org/2000/svg" viewBox="0 0 640 512"><!--! Font Awesome Pro 6.6.0 by @fontawesome - https://fontawesome.com License - https://fontawesome.com/license (Commercial License) Copyright 2024 Fonticons, Inc. --><path d="M144 0L128 0l0 16 0 80L32 96 0 96l0 32L0 448l0 32 32 0 328.2 0c-8.1-9.8-15.2-20.6-21-32L32 448l0-160 144 0 0 48 0 32 32 0 112 0c0-10.9 1-21.6 2.9-32L208 336l0-48 131.2 0c5.9-11.4 12.9-22.2 21-32l-8.2 0-144 0-32 0L32 256l0-128 112 0 224 0 112 0 0 64.7c5.3-.5 10.6-.7 16-.7s10.7 .2 16 .7l0-64.7 0-32-32 0-96 0 0-80 0-16L368 0 144 0zM352 96L160 96l0-64 192 0 0 64zM496 256a112 112 0 1 1 0 224 112 112 0 1 1 0-224zm0 256a144 144 0 1 0 0-288 144 144 0 1 0 0 288zm16-224l-32 0 0 16 0 64 0 16 16 0 48 0 16 0 0-32-16 0-32 0 0-48 0-16z"/></svg>

<svg xmlns="http://www.w3.org/2000/svg" viewBox="0 0 640 512"><!--! Font Awesome Pro 6.4.0 by @fontawesome - https://fontawesome.com License - https://fontawesome.com/license (Commercial License) Copyright 2023 Fonticons, Inc. --><path d="M144 0H128V16 96H32 0v32V448v32H32 360.2c-8.1-9.8-15.2-20.6-21-32H32V288H176v48 32h32H320c0-10.9 1-21.6 2.9-32H208V288H339.2c5.9-11.4 12.9-22.2 21-32H352 208 176 32V128H144 368 480v64.7c5.3-.5 10.6-.7 16-.7s10.7 .2 16 .7V128 96H480 384V16 0H368 144zM352 96H160V32H352V96zM496 256a112 112 0 1 1 0 224 112 112 0 1 1 0-224zm0 256a144 144 0 1 0 0-288 144 144 0 1 0 0 288zm16-224H480v16 64 16h16 48 16V352H544 512V304 288z"/></svg>
